!!! OTL: Berkowitz589
!!! Chapter: 1
!!! Section: V
!!! Page: 149
!!! Mode: 
!!! Encoder: AR
**kern
*staff1
=1-
!!pagebreak:original
*clefC3
*k[]
*C:
*M4/4
4.d\
8e\
4f\
4c#\
=2
4.d\
8f\
2a-\
=3
4an\
4g\
4f#\
4e-\
=4
4.fn\
8en\
2B/
=5
4.c\
8e\
4e-\
4B/
=6
4.c\
8e-\
4g-\
4f\
=7
!!linebreak:original
4.b-\
8a\
2f#\
=8
4.b-\
8a-\
2f-\
=9
4.b-\
8dd-\
q0.664062bn\
q0.667969g\
q0.667969e-\
=10
4.g-\
8f\
4dn\
4r
=11
4.c#\
8e\
4gn\
4f#\
=12
2.d#\
4r
==
*-
